X: 1
T: Boulavogue   [F]
O: trad.Ireland
S: Colm O Lochlainn 1939
S: Smollet Holden "Collection of Old Established Irish Slow and Quick Tunes" p.14, 1806 (as a waltz)
M: 3/4
L: 1/8
K: F
F |\
FC F2 Ac | fe d2 fd | cA F2 GA | GF D3 D/E/ |\
FC F2 Ac | fe d2 fd | cA A>G FG | FF F3 |]
c |\
cA c2 de | fe d2 fd | cA F2 GA | GF D3 E |\
FC F2 Ac | fe d2 fd | cA A>G FG | FF F3  |]
